X:1
T:POVSOD BOGA
T:POVSOD BOGA
T:SG - 157
T:Franc Kimovec
T:Za Musescore notografiral: A.G.Ninovski
T:Za Musescore notografiral: A.G.Ninovski
C:Franc Kimovec
Z:Za Musescore notografiral: A.G.Ninovski
%%score { ( 1 2 ) | ( 3 4 ) }
L:1/8
Q:1/4=100
M:4/4
K:G
V:1 treble nm="Orgle" snm="Org."
V:2 treble 
V:3 bass 
V:4 bass 
V:1
"^enoglasno" D E3/2 F/ | G4 B2 G3/2 D/ | B2 G2 z G A B | c2 B2 A2 G2 | A4 z D E3/2 F/ | %5
w: Pov- sod Bo-|ga, lju- blje- na|Ma- ti, mi ho- če-|mo pov- sod Bo-|ga: Naj vla- da|
w: Pov- sod Bo-|ga, na- ši mla-|di- ni, naj sve- ta|ve- ra jo bla-|ži; naj da- je|
w: Pov- sod Bo-|ga, na- šim dru-|ži- nam, naj za- kon|bož- ji v~njih ži-|vi; v~njih se vr-|
w: Pov- sod Bo-|ga, Cer- kev naj|sve- ta v~svo- bo- di|na- ro- de u-|či; naj no- si|
 G4 B2 G3/2 D/ | B2 G2 z G F G | A3 A B2 ^c2 | d6 z2 |"^štiriglasno" G2 G3/2 F/ G2 B2 | %10
w: Bog, Kralj naš in|O- če, Go spod je|zem- lje in ne-|ba.|Svoj bla- go- slov, Ma-|
w: moč mla- dim na-|po- rom, za vzo- re|sve- te jo vzgo-|ji.||
w: sti z~de- lom mo-|li- tev in sr- cem|ra- dost- Bog de-|li.||
w: luč bož- je lju-|bez- ni, da bo- mo|v~njej e- do- ni|vsi.||
 (B3 c) A2 z2 | A2 B3/2 ^G/ A2 c>G | G4 z"^dvoglasno" B B3/2 c/ | d3 c B2 d2 | d2 c2 z A B3/2 c/ | %15
w: ri- * ja,|poš- lji iz raj- skih *|dalj. Pov- sod Bo|ga, on je naš|O- če, Pov- sod Bo-|
w: |||||
w: |||||
w: |||||
 B3 B A2 G2 | d4 z B c3/2 d/ | e4 z A B3/2 c/ | e2 d3 D G B |"^štiriglasno" d3 e d2 d2 | G4 z |] %21
w: ga, on je naš|Kralj! Pov- sod Bo-|ga, on je naš|O- če, pov- sod
 Bo-|ga, on je naš|Kralj.|
w: ||||||
w: ||||||
w: ||||||
V:2
 z C2 | (B,8 | B,4) z2 (G2 | G8) | F4 z2 C2 | (B,8 | B,4) (D4 | D6) G2 | F6 z2 | D2 D3/2 D/ D2 G2 | %10
 (G3 A) F2 z2 | F2 F3/2 ^E/ F2 F2 | D4 z G G3/2 A/ | B3 A G2 B2 | B2 A2 z F G3/2 A/ | G3 G F2 E2 | %16
 F4 z G A3/2 B/ | c4 z F G3/2 A/ | c2 B3 D G B | B3 c B2 F2 | G4 z |] %21
V:3
 z D,2 | D,2 E,2 D,4 | D,2 E,2 D,2 D2 | C2 D2 E4 | D6 D,2 | D,2 E,2 D,4 | D,2 E,2 D,4 | %7
 F,2 A,2 G,2 A,2 | A,6 z2 | B,2 B,3/2 A,/ B,2 D2 | D4 D2 z2 | C2 C3/2 B,/ C2 E>D | B,4 z4 | (D8 | %14
 (D8) | D4) ^C4 | A,4 z4 | C,4 D,4 | (G,,4 G,,)D,G,B, | D3 C D2 C2 | [D,B,]4 z |] %21
V:4
 z D,2 | G,,2 G,,2 G,,4 | G,,2 G,,2 G,,2 =F,2 | E,2 D,2 C,2 ^C,2 | D,2 E,2 D,2 A,,2 | %5
 G,,2 G,,2 G,,4 | G,,2 G,,2 B,,4 | D,2 F,2 G,2 E,2 | D,6 z2 | G,2 D,3/2 D,/ B,,2 G,,2 | %10
 (G,,2 B,,2) D,2 z2 | D,2 D,3/2 D,/ D,2 D,2 | G,4 G,,4 | G,,2 D,2 G,4 | F,4 D,4 | %15
 G,2 G,,2 A,,2 E,2 | D,4 G,4 | x8 | x8 | G,4 D,2 [D,,D,]2 | G,,4 z |] %21

